X:1
T:Title
L:1/8
Q:1/4=192
M:none
K:C
V:1 treble nm="MusicXML Part"
V:1
"^Tornada" D2 A2 | A3 G F2 FG | A3 D D2 A2 | A3 G FE D2 | F4 D2 A2 | A3 G F2 FG | A3 D D2 A2 | %7
w: Quen a|o- ma- gen da *|Vir- gen et de|seu Fi- lio * on-|rrar', d'e- les|se- ra muit' on- *|rra- do no seu|
w: |||||||
w: |||||||
w: |||||||
 A3 G FE DC | D4 ||"^Coblas" A2 B2 | G3 A B2 cB | A3 G A2 A_B | A3 G F2 G2 | A4 A2 B2 | %14
w: ben, que non * a *|par.|1.E de|tal ra- zon com' *|es- ta vos di- *|rei, se vos prou-|guer, mi- ra-|
w: ||2.En co-|mer ha ma- ça- *|a, que an- te *|lle * de- fen-|deu Deus que|
w: ||3.Mas de-|pois San- ta Ma- *|ri- a, en que *|à bon- dad' en|sen, bus- cou|
w: ||4.Es- te|mi- ra- gre mui *|gran- de foi, se- *|gun- do que o-|Y di- zer|
 G3 A B2 cB | A3 G A2 A_B | A3 G FE DC | D4 D2 A2 | A3 G F2 FG | A3 D D2 A2 | A3 G FE D2 | %21
w: gre que fez a *|Vir- gen, que sem- *|pre nos- so * ben *|quer, per- que|a- ja- mos o *|rey- no de seu|Fill' ond' a * mo-|
w: per ren non co- *|mes- se, e por- *|que de- la * co- *|meu e fez|co- mer seu ma- *|ri- do A- dan,|lo- go lles * tol-|
w: e bus- ca ca- *|rrei- ras com a- *|ja- mos a- * quel *|ben de Deus,|seu Padr' e seu *|Fi- llo, que el|pe- ra os * seu|
w: a o- me- es *|bo- os, que o *|con- ta- ron * a *|my, dun ri-|co- me que mo- *|ra- va en ter-|ra de Ve- * ne-|
 F4 D2 A2 | A3 G F2 FG | A3 D D2 A2 | A3 G FE DC | D4 |] %26
w: ller pri- mei-|ro nos dei- tou *|fo- ra, que foi|ma- la- ment' * er- *|rar.|
w: leu o rei-|no do Pa- ra- *|y- so e foy-|os end' ei- * xer- *|dar.|
w: ten, en que|vi- van con el *|sen- pre sen co-|i- ta e * sen pen-|sar.|
w: xi, a que|mo- rri- an os *|fi- llos, que non|po- di- an * du- *|rar.|

